COLOR/action 16/16/dialog-layers.svg

<svg height="16" width="16" xmlns="http://www.w3.org/2000/svg"><path d="m.5.49999938 3.7499985 4.55073002h11.2500015l-3.75-4.55073002zm0 5.22462002 3.7499985 4.5507456h11.2500015l-3.75-4.5507456zm0 5.2246356 3.7499985 4.550745h11.2500015l-3.75-4.550745z" fill="#1a7fd4"/><path d="m.5.5.41210938.5h10.83789062l3.337891 4.0507812h.412109l-3.75-4.5507812zm0 5.2246094.41210938.5h10.83789062l3.337891 4.0507816h.412109l-3.75-4.5507816zm0 5.2246096.41210938.5h10.83789062l3.337891 4.050781h.412109l-3.75-4.550781z" fill="#fff" opacity=".3"/><path d="m.5.5 3.75 4.5507812h11.25l-.412109-.5h-10.837891l-3.33789062-4.0507812zm0 5.2246094 3.75 4.5507816h11.25l-.412109-.5000004h-10.837891l-3.33789062-4.0507812zm0 5.2246096 3.75 4.550781h11.25l-.412109-.5h-10.837891l-3.33789062-4.050781z" opacity=".2"/></svg>

<?xml version="1.0" encoding="UTF-8" standalone="no"?>
<svg
   xmlns:dc="http://purl.org/dc/elements/1.1/"
   xmlns:cc="http://creativecommons.org/ns#"
   xmlns:rdf="http://www.w3.org/1999/02/22-rdf-syntax-ns#"
   xmlns:svg="http://www.w3.org/2000/svg"
   xmlns="http://www.w3.org/2000/svg"
   xmlns:sodipodi="http://sodipodi.sourceforge.net/DTD/sodipodi-0.dtd"
   xmlns:inkscape="http://www.inkscape.org/namespaces/inkscape"
   height="16"
   width="16"
   version="1.1"
   id="svg4"
   sodipodi:docname="dialog-layers.svg"
   inkscape:version="0.92.4 (5da689c313, 2019-01-14)">
  <metadata
     id="metadata10">
    <rdf:RDF>
      <cc:Work
         rdf:about="">
        <dc:format>image/svg+xml</dc:format>
        <dc:type
           rdf:resource="http://purl.org/dc/dcmitype/StillImage" />
      </cc:Work>
    </rdf:RDF>
  </metadata>
  <defs
     id="defs8" />
  <sodipodi:namedview
     pagecolor="#ffffff"
     bordercolor="#666666"
     borderopacity="1"
     objecttolerance="10"
     gridtolerance="10"
     guidetolerance="10"
     inkscape:pageopacity="0"
     inkscape:pageshadow="2"
     inkscape:window-width="1920"
     inkscape:window-height="1016"
     id="namedview6"
     showgrid="false"
     inkscape:zoom="14.75"
     inkscape:cx="8"
     inkscape:cy="8"
     inkscape:window-x="0"
     inkscape:window-y="27"
     inkscape:window-maximized="1"
     inkscape:current-layer="svg4" />
  <path
     d="m.5.49999938 3.7499985 4.55073002h11.2500015l-3.75-4.55073002zm0 5.22462002 3.7499985 4.5507456h11.2500015l-3.75-4.5507456zm0 5.2246356 3.7499985 4.550745h11.2500015l-3.75-4.550745z"
     id="path2"
     fill="#1a7fd4" />
  <path
     d="M 0.5 0.5 L 0.91210938 1 L 11.75 1 L 15.087891 5.0507812 L 15.5 5.0507812 L 11.75 0.5 L 0.5 0.5 z M 0.5 5.7246094 L 0.91210938 6.2246094 L 11.75 6.2246094 L 15.087891 10.275391 L 15.5 10.275391 L 11.75 5.7246094 L 0.5 5.7246094 z M 0.5 10.949219 L 0.91210938 11.449219 L 11.75 11.449219 L 15.087891 15.5 L 15.5 15.5 L 11.75 10.949219 L 0.5 10.949219 z "
     id="path817"
     style="fill:#ffffff;fill-opacity:1;opacity:0.3" />
  <path
     d="M 0.5 0.5 L 4.25 5.0507812 L 15.5 5.0507812 L 15.087891 4.5507812 L 4.25 4.5507812 L 0.91210938 0.5 L 0.5 0.5 z M 0.5 5.7246094 L 4.25 10.275391 L 15.5 10.275391 L 15.087891 9.7753906 L 4.25 9.7753906 L 0.91210938 5.7246094 L 0.5 5.7246094 z M 0.5 10.949219 L 4.25 15.5 L 15.5 15.5 L 15.087891 15 L 4.25 15 L 0.91210938 10.949219 L 0.5 10.949219 z "
     id="path822"
     style="fill:#000000;fill-opacity:1;opacity:0.2" />
</svg>
